X:473
T: ICH KAM VOM WALDE
N: F0891
O: Europa, Mitteleuropa, Deutschland
R: erzaehlendes Volks - Lied, Ballade, Liebe
M: 6/8
L: 1/16
K: E
E2 | E4G2G3GA2 | B4c2B4
G2 | G3GG2G3FEF | G4z6
B2 | B3BA2G3Be2 | d6c4
e2 | d3cB2A2G2F2 | G4B2B2G2
e2 | d3cB2A3GF2 | E4z6

@@@ Tune index: 5904
